assets/base/img/common/sns/line.svg

<?xml version="1.0" encoding="utf-8"?>
<!DOCTYPE svg PUBLIC "-//W3C//DTD SVG 1.1//EN" "http://www.w3.org/Graphics/SVG/1.1/DTD/svg11.dtd">
<!-- Uploaded to: SVG Repo, www.svgrepo.com, Generator: SVG Repo Mixer Tools -->
<svg width="800px" height="800px" viewBox="0 0 76 76" xmlns="http://www.w3.org/2000/svg" xmlns:xlink="http://www.w3.org/1999/xlink" version="1.1" baseProfile="full" enable-background="new 0 0 76.00 76.00" xml:space="preserve">
	<path fill="#000000" fill-opacity="1" stroke-linejoin="round" d="M 38,20.7328C 48.4934,20.7328 57,27.6246 57,36.1262C 57,39.6331 55.5525,42.8662 53.1152,45.4545C 49.0115,49.9149 37.3764,57.7843 36.368,57C 35.28,56.1538 36.9352,54.9639 36.7911,52.2248C 36.7611,51.6546 36.4116,51.4889 36.2042,51.4518C 26.553,50.7187 19,44.1371 19,36.1262C 19,27.6246 27.5066,20.7328 38,20.7328 Z M 33.2451,31.25C 32.6998,31.25 32.2578,31.692 32.2578,32.2373L 32.2578,39.652C 32.2578,40.1973 32.6998,40.6393 33.2451,40.6393C 33.7904,40.6393 34.2324,40.1973 34.2324,39.652L 34.2324,32.2373C 34.2324,31.692 33.7904,31.25 33.2451,31.25 Z M 26.6362,31.2503C 26.091,31.2503 25.649,31.6923 25.649,32.2375L 25.649,39.6522C 25.649,40.1975 26.091,40.6395 26.6362,40.6395L 30.3437,40.6394C 30.8889,40.6394 31.3309,40.1974 31.3309,39.6522C 31.3309,39.1069 30.8889,38.6649 30.3437,38.6649L 27.6235,38.6649L 27.6235,32.2375C 27.6235,31.6923 27.1815,31.2503 26.6362,31.2503 Z M 36.63,31.2501C 36.0847,31.2501 35.6427,31.6921 35.6427,32.2374L 35.6427,39.6521C 35.6427,40.1974 36.0847,40.6394 36.63,40.6394C 37.1752,40.6394 37.6172,40.1974 37.6172,39.6521L 37.6172,35.0393L 41.4618,40.2616C 41.7873,40.6935 42.399,40.7826 42.8338,40.4637C 43.0906,40.2855 43.2587,39.9885 43.2587,39.6522L 43.2587,32.2375C 43.2587,31.6922 42.8167,31.2502 42.2715,31.2502C 41.7262,31.2502 41.2842,31.6922 41.2842,32.2375L 41.2842,36.866L 37.456,31.6654L 37.1481,31.3969C 36.9975,31.3038 36.82,31.2501 36.63,31.2501 Z M 45.5759,31.2502C 45.2599,31.2502 44.9785,31.3987 44.7978,31.6297C 44.6667,31.7973 44.5885,32.0083 44.5885,32.2376L 44.5886,32.2491L 44.5886,39.6404L 44.5885,39.6522C 44.5885,40.1974 45.0306,40.6395 45.5759,40.6395L 49.3234,40.6395C 49.8687,40.6395 50.3107,40.1974 50.3107,39.6522C 50.3107,39.1069 49.8687,38.6649 49.3234,38.6649L 46.5631,38.6649L 46.5631,36.9321L 49.3234,36.9321C 49.8687,36.9321 50.3107,36.4901 50.3107,35.9449C 50.3107,35.3996 49.8687,34.9576 49.3234,34.9576L 46.5631,34.9576L 46.5631,33.2248L 49.3234,33.2248C 49.8687,33.2248 50.3107,32.7828 50.3107,32.2376C 50.3107,31.6923 49.8687,31.2503 49.3234,31.2503L 45.5887,31.2503L 45.5759,31.2502 Z "/>
</svg>

<svg width="800" height="800" viewBox="0 0 76 76" xmlns="http://www.w3.org/2000/svg" baseProfile="full"><path d="M38 20.733c10.493 0 19 6.892 19 15.393 0 3.507-1.447 6.74-3.885 9.329-4.104 4.46-15.739 12.33-16.747 11.545-1.088-.846.567-2.036.423-4.775-.03-.57-.38-.736-.587-.773C26.553 50.719 19 44.137 19 36.126c0-8.501 8.507-15.393 19-15.393zM33.245 31.25a.987.987 0 00-.987.987v7.415a.987.987 0 101.974 0v-7.415a.987.987 0 00-.987-.987zm-6.609 0a.987.987 0 00-.987.987v7.415c0 .545.442.987.987.987h3.708a.987.987 0 000-1.974h-2.72v-6.428a.987.987 0 00-.988-.987zm9.994 0a.987.987 0 00-.987.987v7.415a.987.987 0 101.974 0V35.04l3.845 5.223a.987.987 0 001.372.202.986.986 0 00.425-.812v-7.415a.987.987 0 10-1.975 0v4.629l-3.828-5.2-.308-.27a.982.982 0 00-.518-.146zm8.946 0a.986.986 0 00-.987.988v7.414c0 .545.442.987.987.987h3.747a.987.987 0 000-1.974h-2.76v-1.733h2.76a.987.987 0 100-1.974h-2.76v-1.733h2.76a.987.987 0 100-1.975h-3.747z"/></svg>
